app/images/link-arrow.svg

<svg width="6" height="9" viewBox="0 0 6 9" fill="none" xmlns="http://www.w3.org/2000/svg">
<path d="M0.228824 7.88793C-0.0650263 8.13366 -0.0762935 8.54196 0.203658 8.79989C0.48361 9.05782 0.948767 9.06771 1.24262 8.82198C1.24262 8.82198 5.77719 4.97116 5.78955 4.95998C6.07934 4.69388 6.06851 4.27195 5.76535 4.01758L1.24266 0.178763C0.949277 -0.067399 0.484101 -0.0581923 0.203658 0.199327C-0.0767846 0.456846 -0.0662956 0.865161 0.227086 1.11132L3.71295 4.12125C3.94389 4.32066 3.94393 4.67861 3.71304 4.87807L0.228824 7.88793Z" fill="#C4C4C4"/>
</svg>

<svg width="6" height="9" viewBox="0 0 6 9" xmlns="http://www.w3.org/2000/svg" fill="none"><path d="M.229 7.888c-.294.246-.305.654-.025.912.28.258.745.268 1.039.022l4.547-3.862c.29-.266.279-.688-.024-.942l-4.523-3.839c-.293-.246-.759-.237-1.039.021-.28.258-.27.666.023.912l3.486 3.01c.231.199.231.557 0 .757l-3.484 3.01z" fill="#C4C4C4"/></svg>
